X: 15
T: Hark! The Christmas Songs Are Singing
L: 1/4
M: 4/4
Q: 1/4=100
K: D
V:P1
A3/ F/ B A | F d c B | A3/ B/ c d | e c B A | f3/ e/ d F | d3/ c/ c B | A d F B | A3/ G/ F2 | D3/ E/ F D | A2 e2 | d4|]
w: Hark! The Christ- mas songs are sing- ing, And the Christ- mas bells are ring- ing; Wild- ly their glad mes- sage fly- ing, In ex- cel sis glo- ri a, In ex- cel sis glo- ri a.
